src/assets/icon/Icon=reviews.svg

<svg width="16" height="16" viewBox="0 0 16 16" fill="none" xmlns="http://www.w3.org/2000/svg">
<path d="M11.8293 16H4.17067C3.06481 15.9984 2.00472 15.5584 1.22287 14.7763C0.441027 13.9942 0.00125411 12.934 0 11.8281V4.17185C0.000941056 3.0659 0.440614 2.0055 1.22253 1.22337C2.00444 0.441229 3.06472 0.00125529 4.17067 0H11.8293C12.9353 0.00125529 13.9956 0.441229 14.7775 1.22337C15.5594 2.0055 15.9991 3.0659 16 4.17185V11.8281C15.9991 12.9341 15.5594 13.9945 14.7775 14.7766C13.9956 15.5588 12.9353 15.9987 11.8293 16ZM4.17067 1.77778C3.53612 1.77872 2.92784 2.03129 2.47926 2.4801C2.03068 2.9289 1.7784 3.5373 1.77778 4.17185V11.8281C1.7784 12.4627 2.03068 13.0711 2.47926 13.5199C2.92784 13.9687 3.53612 14.2213 4.17067 14.2222H11.8293C12.4639 14.2213 13.0722 13.9687 13.5207 13.5199C13.9693 13.0711 14.2216 12.4627 14.2222 11.8281V4.17185C14.2216 3.5373 13.9693 2.9289 13.5207 2.4801C13.0722 2.03129 12.4639 1.77872 11.8293 1.77778H4.17067Z" fill="black"/>
<path d="M11.969 6.98979C11.9336 6.87521 11.8683 6.77331 11.7804 6.69564C11.6925 6.61796 11.5856 6.56764 11.4718 6.55036L9.4538 6.24237L8.55061 4.32742C8.4936 4.22759 8.41284 4.14494 8.31622 4.08755C8.2196 4.03017 8.11042 4 7.99934 4C7.88826 4 7.77908 4.03017 7.68246 4.08755C7.58584 4.14494 7.50508 4.22759 7.44807 4.32742L6.54487 6.24366L4.52684 6.55164C4.4132 6.56893 4.30645 6.61917 4.21866 6.69668C4.13087 6.7742 4.06555 6.8759 4.03008 6.99028C3.99462 7.10465 3.99042 7.22714 4.01797 7.34388C4.04553 7.46063 4.10372 7.56696 4.18599 7.65087L5.6466 9.14055L5.30206 11.2449C5.28248 11.3634 5.29496 11.4853 5.33809 11.5968C5.38122 11.7082 5.45327 11.8048 5.5461 11.8756C5.63893 11.9464 5.74883 11.9886 5.86336 11.9974C5.9779 12.0062 6.09249 11.9812 6.19418 11.9253L7.99934 10.9292L9.8045 11.924C9.90609 11.981 10.021 12.0068 10.1359 11.9985C10.2509 11.9902 10.3613 11.9481 10.4544 11.877C10.5476 11.806 10.6197 11.7089 10.6625 11.5968C10.7054 11.4848 10.7172 11.3624 10.6966 11.2436L10.3521 9.13927L11.8139 7.64958C11.8961 7.56579 11.9543 7.45961 11.9819 7.34302C12.0095 7.22644 12.0055 7.10409 11.9702 6.98979H11.969Z" fill="black"/>
</svg>

<svg xmlns="http://www.w3.org/2000/svg" width="16" height="16" fill="none" viewBox="0 0 16 16"><path fill="#000" d="M11.83 16H4.17A4.177 4.177 0 0 1 0 11.828V4.172A4.175 4.175 0 0 1 4.17 0h7.66A4.175 4.175 0 0 1 16 4.172v7.656A4.175 4.175 0 0 1 11.83 16zM4.17 1.778a2.396 2.396 0 0 0-2.392 2.394v7.656a2.396 2.396 0 0 0 2.393 2.394h7.658a2.396 2.396 0 0 0 2.393-2.394V4.172a2.396 2.396 0 0 0-2.393-2.394H4.171z"/><path fill="#000" d="M11.969 6.99a.647.647 0 0 0-.189-.294.603.603 0 0 0-.308-.146l-2.018-.308-.903-1.915a.657.657 0 0 0-.235-.24.62.62 0 0 0-.634 0 .657.657 0 0 0-.234.24l-.903 1.917-2.018.308a.603.603 0 0 0-.308.145.647.647 0 0 0-.189.293.674.674 0 0 0 .156.66l1.46 1.49-.344 2.105a.673.673 0 0 0 .036.352.641.641 0 0 0 .208.279.599.599 0 0 0 .648.05L8 10.928l1.806.995a.59.59 0 0 0 .65-.047.637.637 0 0 0 .207-.28.67.67 0 0 0 .035-.353l-.345-2.105 1.462-1.49a.673.673 0 0 0 .156-.66h-.001z"/></svg>
